svg/fluentui-system-icons/ic_fluent_border_bottom_20_filled.svg

<svg width="20" height="20" viewBox="0 0 20 20" fill="none" xmlns="http://www.w3.org/2000/svg">
<path d="M8 3.75C8 3.33579 8.33579 3 8.75 3H11.25C11.6642 3 12 3.33579 12 3.75C12 4.16421 11.6642 4.5 11.25 4.5H8.75C8.33579 4.5 8 4.16421 8 3.75ZM8.71139 15.501C8.72418 15.5003 8.73705 15.5 8.75 15.5H11.25C11.2629 15.5 11.2758 15.5003 11.2886 15.501H14C14.6403 15.501 15.1869 15.0998 15.4021 14.535C15.4089 14.5127 15.4167 14.4905 15.4257 14.4685L15.429 14.4581C15.5908 14.0769 16.032 13.8991 16.4132 14.0609C16.7944 14.2227 16.9723 14.6629 16.8105 15.0441H16.8136C16.3898 16.1867 15.29 17.001 14 17.001H5.99996C4.70992 17.001 3.61007 16.1867 3.18629 15.0441H3.1911C3.02937 14.663 3.20723 14.2228 3.58841 14.061C3.96962 13.8992 4.40983 14.0771 4.57165 14.4583C4.58476 14.4892 4.59564 14.5204 4.60436 14.5519C4.82397 15.1077 5.36604 15.501 5.99996 15.501H8.71139ZM4.60436 5.44903C4.75715 5.0623 5.06604 4.75429 5.45336 4.60266C5.48337 4.59415 5.51319 4.58367 5.54266 4.57116C5.92387 4.40935 6.10173 3.96913 5.93991 3.58792C5.77812 3.20675 5.33798 3.02889 4.9568 3.19061V3.18629C4.1391 3.48957 3.48957 4.1391 3.18629 4.9568H3.1911C3.02937 5.33798 3.20723 5.77812 3.58841 5.93991C3.96962 6.10173 4.40983 5.92387 4.57165 5.54266C4.58476 5.51178 4.59564 5.48051 4.60436 5.44903ZM14.5481 4.60266C14.9354 4.75429 15.2443 5.0623 15.3971 5.44903C15.4058 5.48051 15.4167 5.51178 15.4298 5.54266C15.5916 5.92387 16.0318 6.10173 16.4131 5.93991C16.7942 5.77812 16.9721 5.33798 16.8104 4.9568H16.8152C16.5119 4.1391 15.8624 3.48957 15.0447 3.18629V3.19061C14.6635 3.02889 14.2233 3.20675 14.0616 3.58792C13.8997 3.96913 14.0776 4.40935 14.4588 4.57116C14.4883 4.58367 14.5181 4.59415 14.5481 4.60266ZM3 11.25C3 11.6642 3.33579 12 3.75 12C4.16421 12 4.5 11.6642 4.5 11.25V8.75C4.5 8.33579 4.16421 8 3.75 8C3.33579 8 3 8.33579 3 8.75V11.25ZM16.25 12C15.8358 12 15.5 11.6642 15.5 11.25V8.75C15.5 8.33579 15.8358 8 16.25 8C16.6642 8 17 8.33579 17 8.75V11.25C17 11.6642 16.6642 12 16.25 12Z" fill="#212121"/>
</svg>

<svg xmlns="http://www.w3.org/2000/svg" width="20" height="20"><path d="M8 3.75A.75.75 0 0 1 8.75 3h2.5a.75.75 0 0 1 0 1.5h-2.5A.75.75 0 0 1 8 3.75Zm.711 11.751a.707.707 0 0 1 .039-.001h2.5l.039.001H14a1.5 1.5 0 0 0 1.426-1.032l.003-.01a.75.75 0 0 1 1.382.585h.003A3.001 3.001 0 0 1 14 17.001H6c-1.29 0-2.39-.814-2.814-1.957h.005a.75.75 0 1 1 1.413-.492A1.5 1.5 0 0 0 6 15.5h2.711ZM4.604 5.449a1.505 1.505 0 0 1 .939-.878.75.75 0 0 0-.586-1.38v-.005a3.009 3.009 0 0 0-1.77 1.77h.004a.75.75 0 1 0 1.413.493Zm9.944-.846c.387.151.696.46.85.846a.75.75 0 1 0 1.413-.492h.004a3.009 3.009 0 0 0-1.77-1.77v.004a.75.75 0 1 0-.497 1.412ZM3 11.25a.75.75 0 0 0 1.5 0v-2.5a.75.75 0 0 0-1.5 0v2.5Zm13.25.75a.75.75 0 0 1-.75-.75v-2.5a.75.75 0 0 1 1.5 0v2.5a.75.75 0 0 1-.75.75Z"/></svg>
